X:100
T:Svengubbens polska
T:(SvL Närke 100)
O:Lerbäck, Närke
R:Polska
S:Carl Viktor Rulin
B:Svenska Låtar Närke
M:3/4
L:1/8
K:D
A2 dd dd|cB AB cd|e2 ef ed|cB B2 A2:|
|:f2 dd de/f/|f2ee ed/e/|f2 dd de/f/|fe ee ec/e/|
fa gf ed|ce d2 z2:|

